src/scalable/devices/computer-laptop.svg

<svg width="64" height="64" version="1" xmlns="http://www.w3.org/2000/svg" xmlns:xlink="http://www.w3.org/1999/xlink">
 <defs>
  <linearGradient id="linearGradient898" x1="-240.47" x2="-240.47" y1="-60.605" y2="-29.026" gradientTransform="matrix(.96667 0 0 .95 262.45 67.575)" gradientUnits="userSpaceOnUse">
   <stop stop-color="#4285db" offset="0"/>
   <stop stop-color="#42b9db" offset="1"/>
  </linearGradient>
  <linearGradient id="linearGradient873" x1="10.583" x2="225.69" y1="-184.68" y2="-184.68" gradientTransform="matrix(.11417 0 0 .11417 18.557 59.5)" gradientUnits="userSpaceOnUse">
   <stop stop-color="#fafbfb" offset="0"/>
   <stop stop-color="#fafbfb" stop-opacity="0" offset="1"/>
  </linearGradient>
  <linearGradient id="linearGradient893" x1="520" x2="410" y1="-620" y2="-620" gradientTransform="matrix(.030208 0 0 .030208 18.557 59.5)" gradientUnits="userSpaceOnUse">
   <stop stop-color="#000000" offset="0"/>
   <stop stop-color="#000000" stop-opacity="0" offset="1"/>
  </linearGradient>
 </defs>
 <g transform="translate(0 6)">
  <g transform="translate(270.4,69.763)">
   <rect x="-268.4" y="-63.763" width="60" height="40" rx="5" ry="5" fill="#4d4d4d"/>
  </g>
  <rect x="3" y="7" width="58" height="38" rx="4" ry="3.931" fill="url(#linearGradient898)" stroke-width=".9583"/>
  <path d="m24.599 41.375 14.5-15.708 12.083 15.708z" fill="#1a1a1a" stroke-width=".11417"/>
  <path d="m23.512 31.828-19.068 12.246c0.69391 0.57023 1.5772 0.92578 2.5566 0.92578h37.324z" fill="#e6e6e6" opacity=".9" stroke-width=".11417"/>
  <path d="m19.766 45 3.7458-13.171 20.814 13.171z" fill="#fafbfb" stroke-width=".11417"/>
  <path d="m39.1 24.459-4.834 5.1348v15.406h22.734c1.0943 0 2.08-0.4299 2.8008-1.125z" fill="#b0b2b5" stroke-width=".030208"/>
  <path d="m39.098 24.457 6.043 20.543h11.859c1.0943 0 2.08-0.4299 2.8008-1.125z" fill="#ffffff" stroke-width=".11417"/>
  <path d="m19.766 45 3.7458-13.171 20.814 13.171z" fill="url(#linearGradient873)" stroke-width=".11417"/>
  <path d="m33.057 37.87v7.1303h1.2083v-6.3654z" fill="url(#linearGradient893)" opacity=".35" stroke-width=".030208"/>
 </g>
 <rect y="52" width="64" height="2" rx="1" ry="1" fill="#808080" stroke-linecap="round" stroke-linejoin="round" stroke-width="11.041" style="paint-order:stroke fill markers"/>
 <path d="m23 52c0 0.554 0.446 1 1 1h16c0.554 0 1-0.446 1-1h-18z" fill="#000000" opacity=".35" stroke-linecap="round" stroke-linejoin="round" stroke-width="11.339" style="paint-order:stroke fill markers"/>
</svg>

<svg width="64" height="64" version="1" xmlns="http://www.w3.org/2000/svg"><defs><linearGradient id="a" x1="-240.47" x2="-240.47" y1="-60.605" y2="-29.026" gradientTransform="matrix(.96667 0 0 .95 262.45 67.575)" gradientUnits="userSpaceOnUse"><stop stop-color="#4285db" offset="0"/><stop stop-color="#42b9db" offset="1"/></linearGradient><linearGradient id="b" x1="10.583" x2="225.69" y1="-184.68" y2="-184.68" gradientTransform="translate(18.557 59.5) scale(.11417)" gradientUnits="userSpaceOnUse"><stop stop-color="#fafbfb" offset="0"/><stop stop-color="#fafbfb" stop-opacity="0" offset="1"/></linearGradient><linearGradient id="c" x1="520" x2="410" y1="-620" y2="-620" gradientTransform="matrix(.0302 0 0 .0302 18.557 59.5)" gradientUnits="userSpaceOnUse"><stop offset="0"/><stop stop-opacity="0" offset="1"/></linearGradient></defs><g transform="translate(0 6)"><rect x="-268.4" y="-63.763" width="60" height="40" rx="5" ry="5" fill="#4d4d4d" transform="translate(270.4 69.763)"/><rect x="3" y="7" width="58" height="38" rx="4" ry="3.931" fill="url(#a)"/><path d="m24.599 41.375 14.5-15.708 12.083 15.708z" fill="#1a1a1a"/><path d="M23.512 31.828 4.444 44.074c.694.57 1.577.926 2.557.926h37.324z" fill="#e6e6e6" opacity=".9"/><path d="m19.766 45 3.746-13.171L44.326 45z" fill="#fafbfb"/><path d="m39.1 24.459-4.834 5.135V45H57c1.094 0 2.08-.43 2.8-1.125z" fill="#b0b2b5"/><path d="M39.098 24.457 45.141 45H57c1.094 0 2.08-.43 2.8-1.125z" fill="#fff"/><path d="m19.766 45 3.746-13.171L44.326 45z" fill="url(#b)"/><path d="M33.057 37.87V45h1.208v-6.365z" fill="url(#c)" opacity=".35"/></g><rect y="52" width="64" height="2" rx="1" ry="1" fill="gray" style="paint-order:stroke fill markers"/><path d="M23 52c0 .554.446 1 1 1h16c.554 0 1-.446 1-1H23z" opacity=".35" style="paint-order:stroke fill markers"/></svg>
